X:1
T:Bour\'ee de la Chapelotte
C:Trad.
R:B2
M:3/8
K:G
B4 c2|d4 d2|ede2f2|e2d2g2|g4g2|f4e2|[1 ded2c2|B4 G2:|[2 d2a2f2|g6||*
|: bbb2b2|e6|aaa2a2|d6|g4g2|f4e2|[1 ded2c2|B6:|[2 d2a2f2|g6||**
